www/assets/icons/backpack.svg

<svg xmlns="http://www.w3.org/2000/svg" width="24" height="24" viewBox="0 0 24 24" fill='currentColor'><path d="M20 8v12c0 1.1-.9 2-2 2H6c-1.1 0-2-.9-2-2V8c0-1.86 1.28-3.41 3-3.86V2h3v2h4V2h3v2.14c1.72.45 3 2 3 3.86M6 12v2h10v2h2v-4z"/></svg>

<svg width="24" height="24" viewBox="0 0 24 24" xmlns="http://www.w3.org/2000/svg" fill='currentColor'><path d="M20 8V20C20 21.1 19.1 22 18 22H6C4.9 22 4 21.1 4 20V8C4 6.14 5.28 4.59 7 4.14V2H10V4H14V2H17V4.14C18.72 4.59 20 6.14 20 8ZM6 12V14H16V16H18V12H6Z"/></svg>
